X: 201131
T: Tuar Mr Polka #1
S: "Johnny O'Leary of Sliabh Luachra" (#87)
Z: B.Black
L: 1/8
M: 2/4
Q: 300
R: polka
K: D
e2 dB|cA B/c/d|ef/e/ dB|c/B/A A2|
ef/e/ dB|c/B/A B/c/d|a z/ a/ ge/c/|ed d2 :|
f2 ga|B/c/d ef|g2 ge/g/|ba fa|
f>e fA|B/c/d ef|ab/a/ gc|ed d2 :|
